icon-svg/wppilot.svg

<svg xmlns="http://www.w3.org/2000/svg" fill="#44739e" viewBox="0 0 24 24"><path d="M14.408 15.221a1.007 1.007 0 0 0-.665-.09 1.1 1.1 0 0 0-.688.49 1.168 1.168 0 0 0-.108.791 1.057 1.057 0 0 0 .7.742 1.61 1.61 0 0 0 .6 0 1.021 1.021 0 0 0 .679-.642 1.28 1.28 0 0 0 0-.726 1.008 1.008 0 0 0-.518-.565m-6.078.019a1.1 1.1 0 0 0-.24-.1 1.47 1.47 0 0 0-.479-.017 1.058 1.058 0 0 0-.126 2.029 1.27 1.27 0 0 0 .261.035.979.979 0 0 0 .924-.438 1.068 1.068 0 0 0-.34-1.509M21.978 3a1.277 1.277 0 0 0-.845-.953L21 2h-8.937c-4.915 0-8.977 0-9.03.013A1.262 1.262 0 0 0 2.022 3c-.048.242-.048 17.754 0 18a1.279 1.279 0 0 0 .855.953l.146.047H21l.135-.048a1.276 1.276 0 0 0 .843-.952c.048-.243.048-17.755 0-18M9.189 16.891a1.584 1.584 0 0 1-.63.642 1.44 1.44 0 0 1-.85.161 1.23 1.23 0 0 1-.78-.377l-.163-.165V18.8h-.521v-2.06l.006-2.058.257-.006.254-.007v.492l.133-.137a1.43 1.43 0 0 1 .226-.2 1.37 1.37 0 0 1 .51-.2 3.1 3.1 0 0 1 .636.03c.04.014.159.066.261.116a1.468 1.468 0 0 1 .688.7 1.344 1.344 0 0 1 .146.684 1.374 1.374 0 0 1-.173.737m1.049.74h-.261v-2.963l.257.007.254.006.006 1.474.005 1.476zm.208-3.553a.27.27 0 0 1-.21.061.3.3 0 0 1-.3-.159.238.238 0 0 1-.042-.192.326.326 0 0 1 .163-.281.381.381 0 0 1 .333-.015.376.376 0 0 1 .184.278.329.329 0 0 1-.128.308m1.345 1.406v2.147h-.521v-4.295h.521zm3.706.752a1.445 1.445 0 0 1-.159.613 1.528 1.528 0 0 1-1.219.845 1.567 1.567 0 0 1-1.235-.411 1.48 1.48 0 0 1-.429-.709 1.84 1.84 0 0 1 0-.861 1.522 1.522 0 0 1 .75-.924 1.48 1.48 0 0 1 .438-.16 2.9 2.9 0 0 1 .709.023 1.625 1.625 0 0 1 .782.5 1.51 1.51 0 0 1 .366 1.084zm2.108 1.4a1.5 1.5 0 0 1-.865-.115.644.644 0 0 1-.3-.423c-.018-.069-.033-.755-.039-1.915a1.4 1.4 0 0 0-.282-.014h-.281v-.5h.562v-.321a1.05 1.05 0 0 1 .023-.338c.023-.012.444-.146.484-.152a2.9 2.9 0 0 1 .014.4v.406h.793v.5h-.39l-.392.006-.007.813a8.7 8.7 0 0 0 .017.922c.044.2.165.259.532.255h.229l.006.23.007.229zm.494-9.63a1.635 1.635 0 0 1-.777 1.5 2.01 2.01 0 0 1-.849.217c-.115.013-.269.034-.34.044a.334.334 0 0 1-.419-.2.545.545 0 0 1-.054-.323.528.528 0 0 1 .066-.344.446.446 0 0 1 .492-.282 3.05 3.05 0 0 0 .6-.064c.179-.071.307-.418.284-.77-.019-.3-.148-.511-.336-.561a6.7 6.7 0 0 0-.7-.027l-.6.004-.013.083c-.012.079-.075.663-.117 1.1-.05.5-.062.624-.083.813-.01.113-.031.3-.042.407a3.11 3.11 0 0 1-.233 1.184 1.409 1.409 0 0 1-.951.732 2.35 2.35 0 0 1-.695.007 1.2 1.2 0 0 1-.617-.463c-.137-.209-.167-.317-.548-2.038-.059-.258-.148-.657-.2-.886s-.113-.507-.138-.615c-.063-.292-.085-.359-.127-.384s-.119.05-.119.161c0 .046-.01.165-.021.263-.019.154-.079.765-.24 2.389a3.99 3.99 0 0 1-.206 1.287 1.816 1.816 0 0 1-1.049.978 4 4 0 0 1-.613.144 2.84 2.84 0 0 1-.884-.04 1.74 1.74 0 0 1-.693-.365 1.99 1.99 0 0 1-.538-.982c-.041-.138-.114-.373-.16-.521s-.1-.328-.119-.4-.088-.286-.146-.48-.135-.444-.169-.553c-.056-.189-.2-.657-.377-1.24-.046-.151-.094-.3-.105-.334s-.033-.111-.052-.167c-.041-.133-.177-.575-.271-.886-.144-.478-.083-.728.232-.97a1.03 1.03 0 0 1 .354-.175 1.66 1.66 0 0 1 .743 0 1.39 1.39 0 0 1 1.09 1.231c.173.665.227.871.273 1.038.052.188.586 2.325.655 2.627.023.1.056.249.077.334.075.348.073.344.159.35.058 0 .077 0 .085-.031.015-.046.063-.515.132-1.268.016-.2.039-.448.052-.563.027-.294.116-1.3.144-1.626a2.39 2.39 0 0 1 .273-1.095 1.31 1.31 0 0 1 1.247-.626 1.66 1.66 0 0 1 .8.188 1.366 1.366 0 0 1 .519.415 2.3 2.3 0 0 1 .3.586c.04.125.2.9.33 1.564a17.5 17.5 0 0 0 .406 1.906c.082.05.088.012.163-1.02.027-.377.073-.932.1-1.272.021-.21.038-.377.136-1.332.048-.472.123-.636.327-.736a.7.7 0 0 1 .505-.071l.534.043c1.3.1 1.428.126 1.751.317a1.909 1.909 0 0 1 .773 1.8z"/></svg>

<?xml version="1.0" encoding="UTF-8"?>
<svg width="24px" fill="#44739e" height="24px" viewBox="0 0 24 24" version="1.1" xmlns="http://www.w3.org/2000/svg" xmlns:xlink="http://www.w3.org/1999/xlink">
            <path d="m 14.408,15.221 a 1.007,1.007 0 0 0 -0.665,-0.09 1.1,1.1 0 0 0 -0.688,0.49 1.168,1.168 0 0 0 -0.108,0.791 1.057,1.057 0 0 0 0.7,0.742 1.606,1.606 0 0 0 0.6,0 1.021,1.021 0 0 0 0.679,-0.642 1.28,1.28 0 0 0 0,-0.726 1.008,1.008 0 0 0 -0.518,-0.565 z M 8.33,15.24 A 1.089,1.089 0 0 0 8.09,15.14 1.467,1.467 0 0 0 7.611,15.123 1.058,1.058 0 0 0 7.485,17.152 1.272,1.272 0 0 0 7.746,17.187 0.979,0.979 0 0 0 8.67,16.749 1.068,1.068 0 0 0 8.33,15.24 Z M 21.978,3 A 1.277,1.277 0 0 0 21.133,2.047 L 21,2 H 12.063 C 7.148,2 3.086,2 3.033,2.013 A 1.262,1.262 0 0 0 2.022,3 c -0.048,0.242 -0.048,17.754 0,18 a 1.279,1.279 0 0 0 0.855,0.953 L 3.023,22 H 21 l 0.135,-0.048 A 1.276,1.276 0 0 0 21.978,21 c 0.048,-0.243 0.048,-17.755 0,-18 z M 9.189,16.891 a 1.584,1.584 0 0 1 -0.63,0.642 1.442,1.442 0 0 1 -0.85,0.161 1.231,1.231 0 0 1 -0.78,-0.377 L 6.766,17.152 V 18.8 H 6.245 v -2.06 l 0.006,-2.058 0.257,-0.006 0.254,-0.007 v 0.173 c 0,0.1 0,0.207 0,0.246 v 0.073 l 0.133,-0.137 a 1.432,1.432 0 0 1 0.226,-0.2 1.373,1.373 0 0 1 0.51,-0.2 3.083,3.083 0 0 1 0.636,0.03 c 0.04,0.014 0.159,0.066 0.261,0.116 a 1.468,1.468 0 0 1 0.688,0.7 1.344,1.344 0 0 1 0.146,0.684 1.374,1.374 0 0 1 -0.173,0.737 z m 1.049,0.74 H 9.977 v -2.963 l 0.257,0.007 0.254,0.006 0.006,1.474 0.005,1.476 z m 0.208,-3.553 a 0.271,0.271 0 0 1 -0.21,0.061 0.3,0.3 0 0 1 -0.3,-0.159 0.238,0.238 0 0 1 -0.042,-0.192 0.326,0.326 0 0 1 0.163,-0.281 0.381,0.381 0 0 1 0.333,-0.015 0.376,0.376 0 0 1 0.184,0.278 0.329,0.329 0 0 1 -0.128,0.308 z m 1.345,1.406 v 2.147 H 11.27 v -4.295 h 0.521 z m 3.706,0.752 a 1.445,1.445 0 0 1 -0.159,0.613 1.528,1.528 0 0 1 -1.219,0.845 1.567,1.567 0 0 1 -1.235,-0.411 1.48,1.48 0 0 1 -0.429,-0.709 1.842,1.842 0 0 1 0,-0.861 1.522,1.522 0 0 1 0.75,-0.924 1.476,1.476 0 0 1 0.438,-0.16 2.891,2.891 0 0 1 0.709,0.023 1.625,1.625 0 0 1 0.782,0.5 1.509,1.509 0 0 1 0.366,1.084 z m 2.108,1.4 a 1.5,1.5 0 0 1 -0.865,-0.115 0.644,0.644 0 0 1 -0.3,-0.423 c -0.018,-0.069 -0.033,-0.755 -0.039,-1.915 a 1.414,1.414 0 0 0 -0.282,-0.014 h -0.281 v -0.5 H 16.4 v -0.321 a 1.049,1.049 0 0 1 0.023,-0.338 c 0.023,-0.012 0.444,-0.146 0.484,-0.152 a 2.876,2.876 0 0 1 0.014,0.4 v 0.406 h 0.793 v 0.5 h -0.39 l -0.392,0.006 -0.007,0.813 a 8.735,8.735 0 0 0 0.017,0.922 c 0.044,0.2 0.165,0.259 0.532,0.255 h 0.229 l 0.006,0.23 0.007,0.229 z m 0.494,-9.63 a 1.635,1.635 0 0 1 -0.777,1.5 2.012,2.012 0 0 1 -0.849,0.217 c -0.115,0.013 -0.269,0.034 -0.34,0.044 A 0.334,0.334 0 0 1 15.714,9.567 0.545,0.545 0 0 1 15.66,9.244 0.528,0.528 0 0 1 15.726,8.9 a 0.446,0.446 0 0 1 0.492,-0.282 3.049,3.049 0 0 0 0.6,-0.064 c 0.179,-0.071 0.307,-0.418 0.284,-0.77 -0.019,-0.3 -0.148,-0.511 -0.336,-0.561 a 6.7,6.7 0 0 0 -0.7,-0.027 l -0.6,0.004 -0.013,0.083 c -0.012,0.079 -0.075,0.663 -0.117,1.1 -0.05,0.5 -0.062,0.624 -0.083,0.813 -0.01,0.113 -0.031,0.3 -0.042,0.407 a 3.111,3.111 0 0 1 -0.233,1.184 1.409,1.409 0 0 1 -0.951,0.732 2.354,2.354 0 0 1 -0.695,0.007 1.2,1.2 0 0 1 -0.617,-0.463 C 12.578,10.854 12.548,10.746 12.167,9.025 12.108,8.767 12.019,8.368 11.967,8.139 11.915,7.91 11.854,7.632 11.829,7.524 11.766,7.232 11.744,7.165 11.702,7.14 11.66,7.115 11.583,7.19 11.583,7.301 c 0,0.046 -0.01,0.165 -0.021,0.263 -0.019,0.154 -0.079,0.765 -0.24,2.389 A 3.992,3.992 0 0 1 11.116,11.24 1.816,1.816 0 0 1 10.067,12.218 4.013,4.013 0 0 1 9.454,12.362 2.844,2.844 0 0 1 8.57,12.322 1.741,1.741 0 0 1 7.877,11.957 1.991,1.991 0 0 1 7.339,10.975 C 7.298,10.837 7.225,10.602 7.179,10.454 7.133,10.306 7.079,10.126 7.06,10.054 7.041,9.982 6.972,9.768 6.914,9.574 6.856,9.38 6.779,9.13 6.745,9.021 6.689,8.832 6.545,8.364 6.368,7.781 6.322,7.63 6.274,7.481 6.263,7.447 6.252,7.413 6.23,7.336 6.211,7.28 6.17,7.147 6.034,6.705 5.94,6.394 5.796,5.916 5.857,5.666 6.172,5.424 a 1.033,1.033 0 0 1 0.354,-0.175 1.659,1.659 0 0 1 0.743,0 1.39,1.39 0 0 1 1.09,1.231 c 0.173,0.665 0.227,0.871 0.273,1.038 0.052,0.188 0.586,2.325 0.655,2.627 0.023,0.1 0.056,0.249 0.077,0.334 0.075,0.348 0.073,0.344 0.159,0.35 0.058,0 0.077,0 0.085,-0.031 C 9.623,10.752 9.671,10.283 9.74,9.53 9.756,9.33 9.779,9.082 9.792,8.967 9.819,8.673 9.908,7.667 9.936,7.341 a 2.389,2.389 0 0 1 0.273,-1.095 1.31,1.31 0 0 1 1.247,-0.626 1.66,1.66 0 0 1 0.8,0.188 1.366,1.366 0 0 1 0.519,0.415 2.3,2.3 0 0 1 0.3,0.586 c 0.04,0.125 0.2,0.9 0.33,1.564 a 17.5,17.5 0 0 0 0.406,1.906 c 0.082,0.05 0.088,0.012 0.163,-1.02 0.027,-0.377 0.073,-0.932 0.1,-1.272 0.021,-0.21 0.038,-0.377 0.136,-1.332 0.048,-0.472 0.123,-0.636 0.327,-0.736 a 0.7,0.7 0 0 1 0.505,-0.071 l 0.534,0.043 c 1.3,0.1 1.428,0.126 1.751,0.317 a 1.909,1.909 0 0 1 0.773,1.8 z"/>

</svg>
